assets/logos/protonmail.svg

<svg xmlns="http://www.w3.org/2000/svg" width="100%" height="100%" viewBox="0 0 979 785" fill-rule="evenodd" stroke-linejoin="round" stroke-miterlimit="2" xmlns:v="https://vecta.io/nano"><path d="M71.138 76.228c0-16.301 18.989-25.22 31.524-14.805L434.2 336.896c32.059 26.638 78.54 26.638 110.599 0L876.338 61.423c12.534-10.415 31.523-1.496 31.523 14.805v565.222c0 47.829-38.753 86.603-86.557 86.603H157.696c-47.804 0-86.557-38.774-86.557-86.603V76.228z" fill="#6d4aff" fill-rule="nonzero"/><g transform="matrix(.854913 0 0 .854913 71.1383 56.9465)"><path d="M621.492 271.42l.054.044-195.302 172.607c-33.269 29.404-82.998 30.145-117.128 1.746L0 188.604V22.554C0 3.486 22.212-6.946 36.874 5.236L424.677 327.46c37.5 31.159 91.869 31.159 129.369 0l67.446-56.04z" fill="url(#A)"/><path d="M770.604 147.526V785h106.872c55.917 0 101.247-45.358 101.247-101.301V22.555c0-19.068-22.213-29.502-36.874-17.318L770.604 147.526z" fill="url(#B)"/></g><defs><linearGradient id="A" x1="738.261" y1="384.02" x2="514.95" y2="-568.829" gradientUnits="userSpaceOnUse"><stop offset="0" stop-color="#e2dbff"/><stop offset="1" stop-color="#6d4aff"/></linearGradient><linearGradient id="B" x1="1276.84" y1="1301.35" x2="514.868" y2="-325.53" gradientUnits="userSpaceOnUse"><stop offset="0" stop-color="#e2dbff"/><stop offset=".27" stop-color="#e2dbff"/><stop offset="1" stop-color="#6d4aff"/></linearGradient></defs></svg>

<?xml version="1.0" encoding="UTF-8" standalone="no"?>
<!DOCTYPE svg PUBLIC "-//W3C//DTD SVG 1.1//EN" "http://www.w3.org/Graphics/SVG/1.1/DTD/svg11.dtd">
<svg width="100%" height="100%" viewBox="0 0 979 785" version="1.1" xmlns="http://www.w3.org/2000/svg" xmlns:xlink="http://www.w3.org/1999/xlink" xml:space="preserve" xmlns:serif="http://www.serif.com/" style="fill-rule:evenodd;clip-rule:evenodd;stroke-linejoin:round;stroke-miterlimit:2;">
    <g transform="matrix(0.854913,0,0,0.854913,71.1383,56.9465)">
        <path d="M0,22.554C0,3.486 22.212,-6.946 36.874,5.236L424.677,327.46C462.177,358.619 516.546,358.619 554.046,327.46L941.85,5.236C956.511,-6.946 978.723,3.486 978.723,22.554L978.723,683.7C978.723,739.646 933.393,785 877.476,785L101.247,785C45.33,785 0,739.646 0,683.7L0,22.554Z" style="fill:rgb(109,74,255);fill-rule:nonzero;"/>
    </g>
    <g transform="matrix(0.854913,0,0,0.854913,71.1383,56.9465)">
        <path d="M621.492,271.42L621.546,271.464L426.244,444.071C392.975,473.475 343.246,474.216 309.116,445.817L0,188.604L0,22.554C0,3.486 22.212,-6.946 36.874,5.236L424.677,327.46C462.177,358.619 516.546,358.619 554.046,327.46L621.492,271.42Z" style="fill:url(#_Linear1);"/>
    </g>
    <g transform="matrix(0.854913,0,0,0.854913,71.1383,56.9465)">
        <path d="M770.604,147.526L770.604,785L877.476,785C933.393,785 978.723,739.642 978.723,683.699L978.723,22.555C978.723,3.487 956.51,-6.947 941.849,5.237L770.604,147.526Z" style="fill:url(#_Linear2);"/>
    </g>
    <defs>
        <linearGradient id="_Linear1" x1="0" y1="0" x2="1" y2="0" gradientUnits="userSpaceOnUse" gradientTransform="matrix(-223.311,-952.849,952.849,-223.311,738.261,384.02)"><stop offset="0" style="stop-color:rgb(226,219,255);stop-opacity:1"/><stop offset="1" style="stop-color:rgb(109,74,255);stop-opacity:1"/></linearGradient>
        <linearGradient id="_Linear2" x1="0" y1="0" x2="1" y2="0" gradientUnits="userSpaceOnUse" gradientTransform="matrix(-761.972,-1626.88,1626.88,-761.972,1276.84,1301.35)"><stop offset="0" style="stop-color:rgb(226,219,255);stop-opacity:1"/><stop offset="0.27" style="stop-color:rgb(226,219,255);stop-opacity:1"/><stop offset="1" style="stop-color:rgb(109,74,255);stop-opacity:1"/></linearGradient>
    </defs>
</svg>
